X:5
T:Hornpipe. RDO.05
M:4/4
L:1/8
Q:1/2=80
S:Robert D. Owen MS,Indiana,1826.
R:.Hornpipe
O:Indiana,USA
A:New Harmony
Z:vmp.Chris Partington
K:Bb
F2|B>AB>d B>AB>d|Bbag gfed|c>ded c>dc>B|A>Bc>B A>FG>A|!
B>AB>d BABd|Bbag g>fe>d|cdec AFGA|B2d2B2:|!
|:A>G|F>Ac>e F>Ad>f|e>dc>B B>AG>F|GB”tr”B2FB”tr”B2|cdec BAGF|!
E>gg2D>ff2|edec BAGF|Egfe edcB|B2d2B2:|

